_site/images/resources/info-escrow.svg

<svg height="90" viewBox="0 0 90 90" width="90" xmlns="http://www.w3.org/2000/svg"><g fill="none" fill-rule="evenodd"><rect fill="#127d7a" height="90" rx="9" width="90"/><g fill="#fff" fill-rule="nonzero"><path d="m29.916667 32.583333h12.833333v1.833333h-12.833333z"/><path d="m29.916667 38.083333h12.833333v1.833333h-12.833333z"/><path d="m29.916667 43.583333h17.416667v1.833333h-17.416667z"/><path d="m29.916667 49.083333h11.916667v1.833333h-11.916667z"/><path d="m29.916667 54.583333h7.333333v1.833333h-7.333333z"/><path d="m29.916667 60.083333h5.5v1.833333h-5.5z"/><path d="m69.4900833 28c-.9313768-.0026968-1.8250422.3677106-2.4814166 1.0285l-3.1753334 3.1753333v-12.4538333c0-1.5187831-1.2312169-2.75-2.75-2.75h-40.3333333c-1.5187831 0-2.75 1.2312169-2.75 2.75v49.5c0 1.5187831 1.2312169 2.75 2.75 2.75h40.3333333c1.5187831 0 2.75-1.2312169 2.75-2.75v-27.1205l8.1381667-8.1381667c1.004374-1.003487 1.3050765-2.5133229.7618045-3.8250427-.5432719-1.3117199-1.823449-2.1668066-3.2432212-2.1662906zm-49.65675-8.25c0-.506261.4104057-.9166667.9166667-.9166667h40.3333333c.5062611 0 .9166667.4104057.9166667.9166667v2.75h-42.1666667zm42.1666667 49.5c0 .506261-.4104056.9166667-.9166667.9166667h-40.3333333c-.506261 0-.9166667-.4104057-.9166667-.9166667v-44.9166667h42.1666667v9.7038334l-5.5 5.5v-2.75l-9.7038333-9.7038334h-21.4628334v40.3333334h31.1666667v-17.9538334l5.5-5.5zm-21.8845-13.3283333-2.4814167 7.44425 7.44425-2.4814167 2.6345-2.6345 6.9538334-6.9538333v14.2871666h-27.5v-36.6666666h18.3333333v9.1666666h9.1666667v3.2871667l-11.9166667 11.9166667zm2.6345-.0421667 2.3705 2.3705-1.0321667 1.0321667-3.55575 1.18525 1.18525-3.55575zm4.5833333-25.6666667 6.0371667 6.0371667h-6.0371667zm-.9166666 26.741-2.3705-2.3705 21.6205-21.6205 2.3705 2.3705zm24.2586666-24.2586666-1.342 1.342-2.3705-2.3705 1.342-1.342c.4202915-.4387451 1.0450585-.6157768 1.6330375-.4627316s1.0471489.6122151 1.2001941 1.2001941-.0239865 1.212746-.4627316 1.6330375z"/></g></g></svg>

<?xml version="1.0" encoding="UTF-8"?>
<svg width="90px" height="90px" viewBox="0 0 90 90" version="1.1" xmlns="http://www.w3.org/2000/svg" xmlns:xlink="http://www.w3.org/1999/xlink">
    <!-- Generator: Sketch 52.6 (67491) - http://www.bohemiancoding.com/sketch -->
    <title>Group 28</title>
    <desc>Created with Sketch.</desc>
    <g id="Website" stroke="none" stroke-width="1" fill="none" fill-rule="evenodd">
        <g id="19--Resources" transform="translate(-770.000000, -3962.000000)">
            <g id="Group-6" transform="translate(285.000000, 3756.000000)">
                <g id="Group-28" transform="translate(485.000000, 206.000000)">
                    <rect id="Rectangle" fill="#127D7A" x="0" y="0" width="90" height="90" rx="9"></rect>
                    <rect id="Rectangle" fill="#FFFFFF" fill-rule="nonzero" x="29.9166667" y="32.5833333" width="12.8333333" height="1.83333333"></rect>
                    <rect id="Rectangle" fill="#FFFFFF" fill-rule="nonzero" x="29.9166667" y="38.0833333" width="12.8333333" height="1.83333333"></rect>
                    <rect id="Rectangle" fill="#FFFFFF" fill-rule="nonzero" x="29.9166667" y="43.5833333" width="17.4166667" height="1.83333333"></rect>
                    <rect id="Rectangle" fill="#FFFFFF" fill-rule="nonzero" x="29.9166667" y="49.0833333" width="11.9166667" height="1.83333333"></rect>
                    <rect id="Rectangle" fill="#FFFFFF" fill-rule="nonzero" x="29.9166667" y="54.5833333" width="7.33333333" height="1.83333333"></rect>
                    <rect id="Rectangle" fill="#FFFFFF" fill-rule="nonzero" x="29.9166667" y="60.0833333" width="5.5" height="1.83333333"></rect>
                    <path d="M69.4900833,28 C68.5587065,27.9973032 67.6650411,28.3677106 67.0086667,29.0285 L63.8333333,32.2038333 L63.8333333,19.75 C63.8333333,18.2312169 62.6021164,17 61.0833333,17 L20.75,17 C19.2312169,17 18,18.2312169 18,19.75 L18,69.25 C18,70.7687831 19.2312169,72 20.75,72 L61.0833333,72 C62.6021164,72 63.8333333,70.7687831 63.8333333,69.25 L63.8333333,42.1295 L71.9715,33.9913333 C72.975874,32.9878463 73.2765765,31.4780104 72.7333045,30.1662906 C72.1900326,28.8545707 70.9098555,27.999484 69.4900833,28 Z M19.8333333,19.75 C19.8333333,19.243739 20.243739,18.8333333 20.75,18.8333333 L61.0833333,18.8333333 C61.5895944,18.8333333 62,19.243739 62,19.75 L62,22.5 L19.8333333,22.5 L19.8333333,19.75 Z M62,69.25 C62,69.756261 61.5895944,70.1666667 61.0833333,70.1666667 L20.75,70.1666667 C20.243739,70.1666667 19.8333333,69.756261 19.8333333,69.25 L19.8333333,24.3333333 L62,24.3333333 L62,34.0371667 L56.5,39.5371667 L56.5,36.7871667 L46.7961667,27.0833333 L25.3333333,27.0833333 L25.3333333,67.4166667 L56.5,67.4166667 L56.5,49.4628333 L62,43.9628333 L62,69.25 Z M40.1155,55.9216667 L37.6340833,63.3659167 L45.0783333,60.8845 L47.7128333,58.25 L54.6666667,51.2961667 L54.6666667,65.5833333 L27.1666667,65.5833333 L27.1666667,28.9166667 L45.5,28.9166667 L45.5,38.0833333 L54.6666667,38.0833333 L54.6666667,41.3705 L42.75,53.2871667 L40.1155,55.9216667 Z M42.75,55.8795 L45.1205,58.25 L44.0883333,59.2821667 L40.5325833,60.4674167 L41.7178333,56.9116667 L42.75,55.8795 Z M47.3333333,30.2128333 L53.3705,36.25 L47.3333333,36.25 L47.3333333,30.2128333 Z M46.4166667,56.9538333 L44.0461667,54.5833333 L65.6666667,32.9628333 L68.0371667,35.3333333 L46.4166667,56.9538333 Z M70.6753333,32.6951667 L69.3333333,34.0371667 L66.9628333,31.6666667 L68.3048333,30.3246667 C68.7251248,29.8859216 69.3498918,29.7088899 69.9378708,29.8619351 C70.5258498,30.0149803 70.9850197,30.4741502 71.1380649,31.0621292 C71.2911101,31.6501082 71.1140784,32.2748752 70.6753333,32.6951667 Z" id="Shape" fill="#FFFFFF" fill-rule="nonzero"></path>
                </g>
            </g>
        </g>
    </g>
</svg>
